X:208
T:Do You Love an Apple?
T:Still I Love Him
R:song
D:Bothy Band: 1975
Z:id:hn-song-208
M:3/4
L:1/8
Q:1/4=160
K:D
A2 | d2d2d2 | B2A2A2 | d2c2d2 | B4
A2 | d2d2d2 | B2A2F2 | F3ED2 | E4 ||
F2 | D4E2 | FA3A2 | B4A2 | B2d4 |
d3cd2 | BA3F2 | E3FE2 | D6- | D4 ||
W:Do you love an apple, do you love a pear?
W:Do you love a laddie with curly brown hair?
W:
W:Chorus:
W:Still, I love him, I can't deny him
W:I'll be with him where ever he goes
W:
W:Before I got married I wore a black shawl
W:But since I got married I wear bugger-all
W:
W:Chorus
W:
W:He stood at the corner, a fag in his mouth
W:Two hands in his pockets, he whistled me out
W:
W:Chorus
W:
W:He works at the pier, for nine bob a week
W:Come Saturday night he comes rolling home drunk
W:
W:Chorus
W:
W:Before I got married I'd sport and I'd play
W:But now, the cradle it gets in me way
W:
W:Chorus
W:
W:Do you love an apple, do you love a pear?
W:Do you love a laddie with curly brown hair?
W:
W:Chorus

